X:1
T:H. L. Wooldridge
T:Yattendon 11
%%score 1 2 3 4
L:1/8
Q:1/4=132
M:4/2
K:D
V:1 treble nm="Soprano" snm="S."
V:2 alto nm="Alto" snm="A."
V:3 tenor nm="Tenor" snm="T."
V:4 bass nm="Bass" snm="B."
V:1
"^Con moto" F8 | F6 F2 F4 E4 | E4 D4 G4 G4 | F4 A4 A4 ^G4 | A12 A4 | B6 B2 A4 D4 | G4 G4 F4 E4 | %7
 F4 B4 B4 ^A4 | B12 |] %9
V:2
 C8 | C6 C2 D4 B,4 | C4 D4 D4 C4 | D4 D4 E4 E4 | E12 F4 | F6 B,2 C4 A,4 | B,4 C4 D4 B,4 | %7
 C4 F4 F4 F4 | F12 |] %9
V:3
 A,8 | A,6 A,2 A,4 G,4 | A,4 F,4 G,4 G,4 | A,4 A,4 B,4 B,4 | C12 C4 | D6 D2 A,4 A,4 | %6
 G,4 G,4 A,4 B,4 | ^A,4 B,4 C4 C4 | D12 |] %9
V:4
 F,8 | F,6 F,2 D,4 E,4 | A,,4 B,,4 E,4 E,4 | D,4 F,4 E,4 E,4 | A,12 F,4 | B,,6 B,,2 F,4 F,4 | %6
 E,4 E,4 D,4 G,4 | F,4 D,4 F,4 F,4 | B,,12 |] %9

